packages/brickdoc-design-icons/assets/basic/people.svg

<svg width="24" height="24" viewBox="0 0 24 24" fill="none" xmlns="http://www.w3.org/2000/svg">
<path fill-rule="evenodd" clip-rule="evenodd" d="M14.5001 10.2416C13.7601 10.7361 12.89 11 12 11C10.8073 10.9974 9.6643 10.5224 8.82095 9.67907C7.97761 8.83573 7.50264 7.69269 7.5 6.50003C7.5 5.61001 7.76393 4.73996 8.25839 3.99993C8.75286 3.25991 9.45569 2.68315 10.278 2.34256C11.1002 2.00196 12.005 1.91285 12.8779 2.08648C13.7508 2.26012 14.5527 2.68868 15.182 3.31802C15.8113 3.94736 16.2399 4.74918 16.4135 5.6221C16.5872 6.49501 16.4981 7.39984 16.1575 8.2221C15.8169 9.04437 15.2401 9.74717 14.5001 10.2416ZM13.3889 4.42135C12.9778 4.14665 12.4945 4.00003 12 4.00003C11.337 4.00003 10.7011 4.26339 10.2322 4.73223C9.7634 5.20108 9.5 5.83699 9.5 6.50003C9.5 6.99448 9.64662 7.47782 9.92133 7.88894C10.196 8.30007 10.5865 8.6205 11.0433 8.80972C11.5001 8.99894 12.0028 9.04842 12.4877 8.95196C12.9727 8.8555 13.4182 8.61742 13.7678 8.26779C14.1174 7.91816 14.3555 7.47268 14.452 6.98773C14.5484 6.50278 14.4989 6.00012 14.3097 5.5433C14.1205 5.08648 13.8001 4.69606 13.3889 4.42135Z" fill="#3e3e3e"/>
<path d="M6.19 10.5C6.0109 10.4972 5.83546 10.449 5.68002 10.36C5.03655 9.97287 4.50017 9.43085 4.11981 8.78337C3.73944 8.13588 3.52716 7.4035 3.50231 6.65296C3.47746 5.90243 3.64083 5.1576 3.97753 4.48637C4.31424 3.81514 4.81356 3.23885 5.43002 2.81001C5.64639 2.65818 5.91405 2.59819 6.17452 2.64317C6.43499 2.68814 6.66707 2.83441 6.82 3.05C6.89624 3.15808 6.95029 3.28023 6.979 3.40934C7.00771 3.53846 7.01052 3.67199 6.98727 3.8022C6.96402 3.9324 6.91515 4.05669 6.84353 4.16789C6.77191 4.27909 6.67894 4.37497 6.57 4.44999C6.22855 4.6885 5.95211 5.00855 5.76577 5.38105C5.57943 5.75355 5.48911 6.16671 5.50301 6.58299C5.51692 6.99926 5.63464 7.40546 5.84542 7.76469C6.05621 8.12392 6.3534 8.42481 6.71002 8.63999C6.89919 8.75222 7.04608 8.92369 7.12795 9.12785C7.20982 9.332 7.22209 9.55746 7.16287 9.7693C7.10364 9.98113 6.97622 10.1675 6.80035 10.2996C6.62447 10.4317 6.40994 10.5022 6.19 10.5Z" fill="#3e3e3e"/>
<path d="M17.43 8.55002C17.3147 8.62157 17.2152 8.71583 17.1375 8.82708C17.0598 8.93834 17.0056 9.06426 16.9781 9.19714C16.9506 9.33003 16.9504 9.46712 16.9776 9.60006C17.0048 9.73301 17.0588 9.85903 17.1362 9.97046C17.2137 10.0819 17.313 10.1764 17.4282 10.2482C17.5433 10.32 17.6718 10.3676 17.806 10.3882C17.9401 10.4087 18.077 10.4017 18.2084 10.3676C18.3397 10.3336 18.4628 10.2731 18.57 10.19C19.1661 9.77673 19.6533 9.2252 19.9897 8.58258C20.3262 7.93995 20.5019 7.2254 20.5019 6.50003C20.5019 5.77466 20.3262 5.06007 19.9897 4.41745C19.6533 3.77482 19.1661 3.2233 18.57 2.81003C18.4628 2.72689 18.3397 2.66645 18.2084 2.63238C18.077 2.59832 17.9401 2.59133 17.806 2.61187C17.6718 2.63242 17.5433 2.68005 17.4282 2.75186C17.313 2.82367 17.2137 2.91818 17.1362 3.0296C17.0588 3.14102 17.0048 3.26702 16.9776 3.39996C16.9504 3.53291 16.9506 3.67 16.9781 3.80288C17.0056 3.93577 17.0598 4.06169 17.1375 4.17294C17.2152 4.28419 17.3147 4.37845 17.43 4.45001C17.7601 4.6804 18.0297 4.98708 18.2158 5.34399C18.4019 5.7009 18.4991 6.0975 18.4991 6.50003C18.4991 6.90256 18.4019 7.29912 18.2158 7.65603C18.0297 8.01294 17.7601 8.31962 17.43 8.55002Z" fill="#3e3e3e"/>
<path fill-rule="evenodd" clip-rule="evenodd" d="M8.06003 13.38C10.6454 12.8734 13.3046 12.8734 15.89 13.38C17.1155 13.8852 18.0903 14.8564 18.6 16.08C18.9752 17.3505 19.1042 18.6811 18.98 20V21C18.98 21.2652 18.8747 21.5196 18.6871 21.7071C18.4996 21.8947 18.2452 22 17.98 22H5.98001C5.71479 22 5.46045 21.8947 5.27292 21.7071C5.08538 21.5196 4.98001 21.2652 4.98001 21V20C4.85585 18.6811 4.98483 17.3505 5.36001 16.08C5.86739 14.8583 6.83828 13.8874 8.06003 13.38ZM7.21002 16.85C6.96698 17.8812 6.88933 18.9445 6.98001 20H16.98C17.0707 18.9445 16.993 17.8812 16.75 16.85C16.4456 16.1169 15.8631 15.5344 15.13 15.23C13.0412 14.9234 10.9188 14.9234 8.83002 15.23C8.09697 15.5344 7.51445 16.1169 7.21002 16.85Z" fill="#3e3e3e"/>
<path d="M22.45 15.73C21.9728 14.7881 21.2097 14.0215 20.27 13.54C20.0326 13.4193 19.757 13.3979 19.5039 13.4804C19.2507 13.5629 19.0407 13.7426 18.92 13.98C18.7993 14.2174 18.7779 14.493 18.8604 14.7462C18.9429 14.9993 19.1226 15.2093 19.36 15.33C19.9239 15.6175 20.3825 16.0761 20.67 16.64C21 17.28 21 18.3199 21 20.3998V21C21 21.2652 21.1054 21.5196 21.2929 21.7071C21.4804 21.8947 21.7348 22 22 22C22.2652 22 22.5196 21.8947 22.7071 21.7071C22.8946 21.5196 23 21.2652 23 21V20.4C23 18.0001 23 16.8 22.45 15.73Z" fill="#3e3e3e"/>
<path d="M4.49078 13.4836C4.74187 13.566 4.95012 13.7445 5.07001 13.98C5.13066 14.0968 5.16765 14.2245 5.17886 14.3557C5.19007 14.4868 5.1753 14.6189 5.13535 14.7443C5.0954 14.8697 5.03108 14.986 4.94608 15.0865C4.86108 15.1871 4.75706 15.2698 4.64001 15.33C4.07236 15.6158 3.61014 16.0746 3.32001 16.64C3.00001 17.28 3 18.32 3 20.4V21C3 21.2652 2.89466 21.5196 2.70712 21.7071C2.51959 21.8947 2.26522 22 2 22C1.73478 22 1.48044 21.8947 1.29291 21.7071C1.10537 21.5196 1 21.2652 1 21V20.4C1 18 1.00001 16.8 1.54001 15.73C2.01982 14.7866 2.78662 14.0198 3.73001 13.54C3.96618 13.4214 4.23969 13.4011 4.49078 13.4836Z" fill="#3e3e3e"/>
</svg>

<svg  viewBox="0 0 24 24" width="24" height="24" fill="none" xmlns="http://www.w3.org/2000/svg"><path fill-rule="evenodd" clip-rule="evenodd" d="M14.5 10.242A4.5 4.5 0 0 1 12 11a4.51 4.51 0 0 1-4.5-4.5 4.5 4.5 0 1 1 7 3.742Zm-1.111-5.82a2.5 2.5 0 1 0-2.778 4.156 2.5 2.5 0 0 0 2.778-4.157Z" fill="#34313c"/><path d="M6.19 10.5a1.06 1.06 0 0 1-.51-.14 4.5 4.5 0 0 1-.25-7.55 1 1 0 1 1 1.14 1.64 2.5 2.5 0 0 0 .14 4.19 1 1 0 0 1-.52 1.86ZM17.43 8.55a1 1 0 1 0 1.14 1.64 4.49 4.49 0 0 0 0-7.38 1 1 0 1 0-1.14 1.64 2.5 2.5 0 0 1 0 4.1Z" fill="#34313c"/><path fill-rule="evenodd" clip-rule="evenodd" d="M8.06 13.38a20.36 20.36 0 0 1 7.83 0 5 5 0 0 1 2.71 2.7c.375 1.27.504 2.601.38 3.92v1a1 1 0 0 1-1 1h-12a1 1 0 0 1-1-1v-1a10.4 10.4 0 0 1 .38-3.92 5 5 0 0 1 2.7-2.7Zm-.85 3.47A10 10 0 0 0 6.98 20h10a10 10 0 0 0-.23-3.15 3 3 0 0 0-1.62-1.62 21.69 21.69 0 0 0-6.3 0 3 3 0 0 0-1.62 1.62Z" fill="#34313c"/><path d="M22.45 15.73a5 5 0 0 0-2.18-2.19 1.004 1.004 0 1 0-.91 1.79 3 3 0 0 1 1.31 1.31c.33.64.33 1.68.33 3.76v.6a1 1 0 0 0 2 0v-.6c0-2.4 0-3.6-.55-4.67ZM4.49 13.484a1 1 0 0 1 .58.496 1 1 0 0 1-.43 1.35 3 3 0 0 0-1.32 1.31C3 17.28 3 18.32 3 20.4v.6a1 1 0 1 1-2 0v-.6c0-2.4 0-3.6.54-4.67a5 5 0 0 1 2.19-2.19 1 1 0 0 1 .76-.056Z" fill="#34313c"/></svg>
